**kern
*staff1
*I"P1
!!pagebreak:original
*clefG2
*k[f#c#]
*M3/8
ggq/
16ff#\LL
16ee\J
8ff#\J
=1
ff#q/
16ee\LL
16dd\J
8ee\
16ddq/LL
16eeq/JJ
16dd\L
16cc#\JJ
=2
8dd\L
8b\
16dd\L
16cc#\JJ
=3
8dd\L
16cc#\L
16ee\
16dd\
16cc#\JJ
=4
[4.b\
=5
16b\LL]
16ff#\
ggq/
16ff#\
16ee\J
8ff#\J
=6
16ee\LL
16dd\J
8ee\
16ddq/LL
16eeq/JJ
16dd\L
16cc#\JJ
=7
8dd\L
8b\J
=
*-
